src/images/btn-one.svg

<svg width="490" height="269" viewBox="0 0 490 269" fill="none" xmlns="http://www.w3.org/2000/svg">
<g style="mix-blend-mode:multiply" opacity="0.2">
<path d="M173.581 327.396C156.392 339.256 131.031 337.277 116.811 322.966C102.592 308.654 104.989 287.522 122.178 275.661L242.182 192.86L253.712 184.904C261.72 179.379 266.01 171.924 266.189 163.41L267.849 99.3346C268.046 90.6581 272.318 83.3656 280.432 77.767L636.854 -172.544C654.043 -184.404 679.405 -182.425 693.624 -168.113C707.844 -153.802 705.446 -132.669 688.257 -120.809L365.359 106.37L327.885 132.227L295.962 154.254C287.955 159.779 283.576 167.145 283.379 175.821L281.807 239.986C281.61 248.662 277.338 255.954 269.331 261.48L173.67 327.485L173.581 327.396ZM247.927 -81.5511L529.721 -280.369C546.91 -292.229 572.271 -290.25 586.491 -275.938C600.71 -261.627 598.313 -240.494 581.124 -228.634L263.457 -5.0644C255.45 0.460615 251.159 7.91567 250.874 16.5033L249.213 80.5786C249.016 89.2551 244.638 96.6212 236.631 102.146C179.832 141.337 123.14 180.454 66.341 219.645C49.1519 231.505 23.7907 229.526 9.57098 215.215C-4.64875 200.903 -2.25112 179.771 14.938 167.91L15.0448 167.836L221.207 25.5859C229.215 20.0609 233.505 12.6058 233.683 4.09189L235.344 -59.9834C235.629 -68.571 239.919 -76.0261 247.927 -81.5511ZM301.464 420.605L280.539 435.043C263.349 446.904 237.988 444.924 223.769 430.613C209.549 416.301 211.946 395.169 229.136 383.309L286.041 344.044C294.048 338.519 298.338 331.064 298.517 322.55L300.178 258.475C300.375 249.798 304.647 242.506 312.761 236.907C369.559 197.716 831.959 -125.822 888.757 -165.013C905.946 -176.873 931.308 -174.894 945.527 -160.583C959.747 -146.271 957.349 -125.139 940.16 -113.278L940.054 -113.205L328.184 313.468C320.177 318.993 315.798 326.359 315.708 334.962L314.047 399.037C313.762 407.624 309.472 415.08 301.464 420.605Z" fill="#2C71D3"/>
<path d="M173.581 327.396C156.392 339.256 131.031 337.277 116.811 322.966C102.592 308.654 104.989 287.522 122.178 275.661L242.182 192.86L253.712 184.904C261.72 179.379 266.01 171.924 266.189 163.41L267.849 99.3346C268.046 90.6581 272.318 83.3656 280.432 77.767L636.854 -172.544C654.043 -184.404 679.405 -182.425 693.624 -168.113C707.844 -153.802 705.446 -132.669 688.257 -120.809L365.359 106.37L327.885 132.227L295.962 154.254C287.955 159.779 283.576 167.145 283.379 175.821L281.807 239.986C281.61 248.662 277.338 255.954 269.331 261.48L173.67 327.485L173.581 327.396ZM247.927 -81.5511L529.721 -280.369C546.91 -292.229 572.271 -290.25 586.491 -275.938C600.71 -261.627 598.313 -240.494 581.124 -228.634L263.457 -5.0644C255.45 0.460615 251.159 7.91567 250.874 16.5033L249.213 80.5786C249.016 89.2551 244.638 96.6212 236.631 102.146C179.832 141.337 123.14 180.454 66.341 219.645C49.1519 231.505 23.7907 229.526 9.57098 215.215C-4.64875 200.903 -2.25112 179.771 14.938 167.91L15.0448 167.836L221.207 25.5859C229.215 20.0609 233.505 12.6058 233.683 4.09189L235.344 -59.9834C235.629 -68.571 239.919 -76.0261 247.927 -81.5511ZM301.464 420.605L280.539 435.043C263.349 446.904 237.988 444.924 223.769 430.613C209.549 416.301 211.946 395.169 229.136 383.309L286.041 344.044C294.048 338.519 298.338 331.064 298.517 322.55L300.178 258.475C300.375 249.798 304.647 242.506 312.761 236.907C369.559 197.716 831.959 -125.822 888.757 -165.013C905.946 -176.873 931.308 -174.894 945.527 -160.583C959.747 -146.271 957.349 -125.139 940.16 -113.278L940.054 -113.205L328.184 313.468C320.177 318.993 315.798 326.359 315.708 334.962L314.047 399.037C313.762 407.624 309.472 415.08 301.464 420.605Z" fill="url(#paint0_linear)"/>
</g>
<defs>
<linearGradient id="paint0_linear" x1="91.0002" y1="108.14" x2="448.188" y2="208.786" gradientUnits="userSpaceOnUse">
<stop stop-color="#F8F8FA"/>
<stop offset="1" stop-color="white" stop-opacity="0"/>
</linearGradient>
</defs>
</svg>

<svg width="490" height="269" viewBox="0 0 490 269" fill="none" xmlns="http://www.w3.org/2000/svg"><g style="mix-blend-mode:multiply" opacity=".2"><path d="M173.581 327.396c-17.189 11.86-42.55 9.881-56.77-4.43-14.219-14.312-11.822-35.444 5.367-47.305l120.004-82.801 11.53-7.956c8.008-5.525 12.298-12.98 12.477-21.494l1.66-64.075c.197-8.677 4.469-15.97 12.583-21.568l356.422-250.311c17.189-11.86 42.551-9.881 56.77 4.431 14.22 14.311 11.822 35.444-5.367 47.304L365.359 106.37l-37.474 25.857-31.923 22.027c-8.007 5.525-12.386 12.891-12.583 21.567l-1.572 64.165c-.197 8.676-4.469 15.968-12.476 21.494l-95.661 66.005-.089-.089zm74.346-408.947L529.721-280.37c17.189-11.86 42.55-9.881 56.77 4.431 14.219 14.311 11.822 35.444-5.367 47.304L263.457-5.064C255.45.46 251.159 7.916 250.874 16.503l-1.661 64.076c-.197 8.676-4.575 16.042-12.582 21.567L66.341 219.645c-17.19 11.86-42.55 9.881-56.77-4.43-14.22-14.312-11.822-35.444 5.367-47.305l.107-.074 206.162-142.25c8.008-5.525 12.298-12.98 12.476-21.494l1.661-64.075c.285-8.588 4.575-16.043 12.583-21.568zm53.537 502.156l-20.925 14.438c-17.19 11.861-42.551 9.881-56.77-4.43-14.22-14.312-11.823-35.444 5.367-47.304l56.905-39.265c8.007-5.525 12.297-12.98 12.476-21.494l1.661-64.075c.197-8.677 4.469-15.969 12.583-21.568 56.798-39.191 519.198-362.729 575.996-401.92 17.189-11.86 42.551-9.881 56.77 4.43 14.22 14.312 11.822 35.444-5.367 47.305l-.106.073-611.87 426.673c-8.007 5.525-12.386 12.891-12.476 21.494l-1.661 64.075c-.285 8.587-4.575 16.043-12.583 21.568z" fill="#2C71D3"/><path d="M173.581 327.396c-17.189 11.86-42.55 9.881-56.77-4.43-14.219-14.312-11.822-35.444 5.367-47.305l120.004-82.801 11.53-7.956c8.008-5.525 12.298-12.98 12.477-21.494l1.66-64.075c.197-8.677 4.469-15.97 12.583-21.568l356.422-250.311c17.189-11.86 42.551-9.881 56.77 4.431 14.22 14.311 11.822 35.444-5.367 47.304L365.359 106.37l-37.474 25.857-31.923 22.027c-8.007 5.525-12.386 12.891-12.583 21.567l-1.572 64.165c-.197 8.676-4.469 15.968-12.476 21.494l-95.661 66.005-.089-.089zm74.346-408.947L529.721-280.37c17.189-11.86 42.55-9.881 56.77 4.431 14.219 14.311 11.822 35.444-5.367 47.304L263.457-5.064C255.45.46 251.159 7.916 250.874 16.503l-1.661 64.076c-.197 8.676-4.575 16.042-12.582 21.567L66.341 219.645c-17.19 11.86-42.55 9.881-56.77-4.43-14.22-14.312-11.822-35.444 5.367-47.305l.107-.074 206.162-142.25c8.008-5.525 12.298-12.98 12.476-21.494l1.661-64.075c.285-8.588 4.575-16.043 12.583-21.568zm53.537 502.156l-20.925 14.438c-17.19 11.861-42.551 9.881-56.77-4.43-14.22-14.312-11.823-35.444 5.367-47.304l56.905-39.265c8.007-5.525 12.297-12.98 12.476-21.494l1.661-64.075c.197-8.677 4.469-15.969 12.583-21.568 56.798-39.191 519.198-362.729 575.996-401.92 17.189-11.86 42.551-9.881 56.77 4.43 14.22 14.312 11.822 35.444-5.367 47.305l-.106.073-611.87 426.673c-8.007 5.525-12.386 12.891-12.476 21.494l-1.661 64.075c-.285 8.587-4.575 16.043-12.583 21.568z" fill="url(#a)"/></g><defs><linearGradient id="a" x1="91" y1="108.14" x2="448.188" y2="208.786" gradientUnits="userSpaceOnUse"><stop stop-color="#F8F8FA"/><stop offset="1" stop-color="#fff" stop-opacity="0"/></linearGradient></defs></svg>
